X:1421
T:Liffey Banks, The
O:ireland
R:reel
D:Davy Spillane: Shadow Hunter
Z:id:hn-reel-200
M:C|
K:G
BGGF GBdB|cBcd gedc|B2GB ABGE|DEGB AGEF|
GDBD GBdB|cBcd gedc|~B3G AFGE|DEGB AGEF|
~G3F GBdB|cBcd gedc|BdGB ABGE|DEGB AGEF|
GDBD GBdB|cBcd gedc|~B3G AFGE|DEGB AGef||
gage dGBd|gabg agef|~g3e dGBd|gabg agef|
~g3e dGBd|ga~a2 agef|gabg efge|dedc Bdef|
gage dGBd|gabc' bgef|~g3e dGBd|gabg agef|
~g3e dGBd|ga~a2 agef|gabg efge|dedc BcdB||
This file contains 100 reels (#201 - #300).
You can find more abc tune files at http://home1.swipnet.se/~w-11382/abc.htm
I've transcribed them as I have learnt them, which does not necessarily mean
that I play them that way nowadays. Many of the tunes include variations and
different versions. If there is a source (S:) or discography (D:) included the
version transcribed might still not be exactly as that source played the tune,
since I might have changed the tune around a bit when I learnt it.
The tunes were learnt from sessions, from friends or from recordings.
When I've included discography, it's often just a reference to what recordings
the tune appears on.
Last updated 25 March 2001.
(c) Copyright 1997-2001 Henrik Norbeck. This file:
- May be distributed freely (with restrictions below).
- May not be used for commercial purposes (such as printing a tune book to sell).
- This file (or parts of it) may not be made available on a web page for
download without permission from me.
- This copyright notice must be kept, except when e-mailing individual tunes.
- May be printed on paper for personal use.
- Questions? E-mail: henrik.norbeck@mailbox.swipnet.se






